X:1
T:L'eau vive
C:Valse - Guy Bart, fichier abc : Bernard Loffet
L:1/8
Q:360
M:3/4
K:G
 [B2G,,2] G,2 [G2G,2] | [B2G,,2] G,2 [G2G,2] | [B2G,,2] G,2 [G2G,2] | [A2D,,2] D,2 D,2 | \
 [A2D,,2] [B2G,2] [c2D,2] | [A2D,,2] D,2 [B2G,2] | [G2G,,2] G,2 G,2 | [A2D,,2] D,2 D,2 | \
 [B2G,,2] G,2 [G2G,2] | [B2G,,2] G,2 [G2G,2] | [B2G,,2] G,2 [G2G,2] | [A2D,,2] D,2 D,2 | \
 [A2D,,2] [B2G,2] [c2D,2] | [A2D,,2] D,2 [B2G,2] | [G2G,,2] G,2 G,2 | G,,2 G,2 G,2 | \
 [d2G,,2] G,2 G,2 | [e2D,,2] D,2 D,2 | [d2G,,2] G,2 G,2 | [c2D,,2] D,2 D,2 | [c2D,,2] [A2D,2] [c2D,2] | \
 [B2G,,2] [G2G,2] [B2G,2] | [A2D,,2] D,2 D,2 | D,,2 D,2 D,2 | [G2G,,2] G,2 G,2 | [A2D,,2] D,2 D,2 | \
 [B2G,,2] G,2 G,2 | [c2D,,2] D,2 D,2 | [B2G,,2] [A2D,2] [G2G,2] | [A2D,,2] [G2G,2] [F2D,2] | \
 [G2G,,2] G,2 G,2 | G,,2 G,2 G,2 | \
W:Created with TablEdit http://www.tabledit.com/ by Bernard Loffet
